Sweet-Rainbow/icons/quodlibet.svg

<?xml version="1.0" encoding="UTF-8" standalone="no"?>
<!-- Generator: Gravit.io -->

<svg
   xmlns:dc="http://purl.org/dc/elements/1.1/"
   xmlns:cc="http://creativecommons.org/ns#"
   xmlns:rdf="http://www.w3.org/1999/02/22-rdf-syntax-ns#"
   xmlns:svg="http://www.w3.org/2000/svg"
   xmlns="http://www.w3.org/2000/svg"
   xmlns:sodipodi="http://sodipodi.sourceforge.net/DTD/sodipodi-0.dtd"
   xmlns:inkscape="http://www.inkscape.org/namespaces/inkscape"
   style="isolation:isolate"
   viewBox="0 0 36 36"
   width="48"
   height="48"
   version="1.1"
   id="svg14"
   sodipodi:docname="quodlibet.svg"
   inkscape:version="0.92.4 (5da689c313, 2019-01-14)">
  <metadata
     id="metadata20">
    <rdf:RDF>
      <cc:Work
         rdf:about="">
        <dc:format>image/svg+xml</dc:format>
        <dc:type
           rdf:resource="http://purl.org/dc/dcmitype/StillImage" />
        <dc:title></dc:title>
      </cc:Work>
    </rdf:RDF>
  </metadata>
  <defs
     id="defs18" />
  <sodipodi:namedview
     pagecolor="#ffffff"
     bordercolor="#666666"
     borderopacity="1"
     objecttolerance="10"
     gridtolerance="10"
     guidetolerance="10"
     inkscape:pageopacity="0"
     inkscape:pageshadow="2"
     inkscape:window-width="640"
     inkscape:window-height="480"
     id="namedview16"
     showgrid="false"
     inkscape:zoom="29.365243"
     inkscape:cx="25.325443"
     inkscape:cy="32"
     inkscape:current-layer="svg14"
     units="px" />
  <linearGradient
     id="_lgradient_3"
     x1="0"
     y1="0.5"
     x2="1"
     y2="0.5"
     gradientTransform="matrix(25.378,0,0,45,11.311,1.5)"
     gradientUnits="userSpaceOnUse">
    <stop
       offset="6%"
       stop-opacity="1"
       style="stop-color:rgb(43,134,208)"
       id="stop2" />
    <stop
       offset="89%"
       stop-opacity="1"
       style="stop-color:rgb(33,215,137)"
       id="stop4" />
  </linearGradient>
  <linearGradient
     id="_lgradient_4"
     x1="13.525139"
     y1="18.309059"
     x2="49.380661"
     y2="18.309059"
     gradientTransform="scale(0.76322952,1.3102219)"
     gradientUnits="userSpaceOnUse">
    <stop
       offset="6%"
       stop-opacity="1"
       style="stop-color:rgb(43,134,208)"
       id="stop7" />
    <stop
       offset="89%"
       stop-opacity="1"
       style="stop-color:rgb(33,215,137)"
       id="stop9" />
  </linearGradient>
  <g
     id="g828"
     transform="matrix(0.76630493,0,0,0.76630493,-0.39574849,-0.38283566)">
    <path
       id="path12"
       stroke-miterlimit="4"
       d="m 15.82,1.505 c -3.592,-0.176 -5.872,3.924 -3.6,6.598 2.254,3.348 7.648,5.397 11.303,2.891 0,11.343 0.049,24.105 0.049,35.448 2.177,0.565 1.172,-3.156 1.684,-4.46 1.02,-4.924 6.012,-7.485 9.226,-11.008 2.63,-2.874 2.978,-7.266 0.673,-10.448 -0.653,-0.902 -2.766,-4.602 -2.447,-3.899 1.422,2.885 3.248,6.125 2.386,9.396 -1.092,3.924 -5.067,6.428 -9.144,7.037 -1.041,0.149 -0.975,-0.151 -1.078,-1.784 0,-8.108 0,-16.216 0,-24.324 C 23.507,3.641 19.53,1.398 15.82,1.505 Z m 0.431,1.05 c 3.451,-0.158 7.613,2.469 7.179,6.031 -0.895,3.151 -5.455,2.916 -7.771,1.371 C 13.084,8.779 11.183,4.698 14.3,3.06 14.897,2.749 15.574,2.594 16.251,2.555 Z"
       style="vector-effect:non-scaling-stroke;fill:url(#_lgradient_3);stroke:url(#_lgradient_4);stroke-width:2;stroke-linecap:butt;stroke-linejoin:miter;stroke-miterlimit:4"
       inkscape:connector-curvature="0" />
  </g>
</svg>

<?xml version="1.0" encoding="UTF-8" standalone="no"?><!-- Generator: Gravit.io --><svg xmlns="http://www.w3.org/2000/svg" xmlns:xlink="http://www.w3.org/1999/xlink" style="isolation:isolate" viewBox="0 0 48 48" width="48pt" height="48pt"><linearGradient id="_lgradient_3" x1="0" y1="0.5" x2="1" y2="0.5" gradientTransform="matrix(25.378,0,0,45,11.311,1.5)" gradientUnits="userSpaceOnUse"><stop offset="6%" stop-opacity="1" style="stop-color:rgb(43,134,208)"/><stop offset="89%" stop-opacity="1" style="stop-color:rgb(33,215,137)"/></linearGradient><linearGradient id="_lgradient_4" x1="0" y1="0.5" x2="1" y2="0.5"><stop offset="6%" stop-opacity="1" style="stop-color:rgb(43,134,208)"/><stop offset="89%" stop-opacity="1" style="stop-color:rgb(33,215,137)"/></linearGradient><path d=" M 15.82 1.505 C 12.228 1.329 9.948 5.429 12.22 8.103 C 14.474 11.451 19.868 13.5 23.523 10.994 C 23.523 22.337 23.572 35.099 23.572 46.442 C 25.749 47.007 24.744 43.286 25.256 41.982 C 26.276 37.058 31.268 34.497 34.482 30.974 C 37.112 28.1 37.46 23.708 35.155 20.526 C 34.502 19.624 32.389 15.924 32.708 16.627 C 34.13 19.512 35.956 22.752 35.094 26.023 C 34.002 29.947 30.027 32.451 25.95 33.06 C 24.909 33.209 24.975 32.909 24.872 31.276 C 24.872 23.168 24.872 15.06 24.872 6.952 C 23.507 3.641 19.53 1.398 15.82 1.505 Z  M 16.251 2.555 C 19.702 2.397 23.864 5.024 23.43 8.586 C 22.535 11.737 17.975 11.502 15.659 9.957 C 13.084 8.779 11.183 4.698 14.3 3.06 C 14.897 2.749 15.574 2.594 16.251 2.555 Z " fill="url(#_lgradient_3)" vector-effect="non-scaling-stroke" stroke-width="2" stroke="url(#_lgradient_4)" stroke-linejoin="miter" stroke-linecap="butt" stroke-miterlimit="4"/></svg>
